/* XPM */
static char *product_logo_32[] = {
/* columns rows colors chars-per-pixel */
"32 32 722 2 ",
"   c #e9e9e8",
" ! c #e7e8e7",
" " c #e8e8e7",
" # c #e7e7e6",
" $ c #e8e9e8",
" % c #e6e7e6",
" & c #eae8e7",
" ' c #eeebe9",
" ( c #edeae8",
" ) c #edebe8",
" * c #ebeae8",
" + c #e6e7e7",
" , c #e7e8e6",
" - c #e9e8e7",
" . c #e6e6e6",
" / c #dbe1e4",
" 0 c #cdd9df",
" 1 c #cad8de",
" 2 c #c5d5dd",
" 3 c #c4d5de",
" 4 c #c9d7de",
" 5 c #cedae0",
" 6 c #d9dfe2",
" 7 c #ece9e7",
" 8 c #e9eae9",
" 9 c #e7e7e7",
" : c #e6e7e5",
" ; c #e1e4e4",
" < c #c7d6de",
" = c #bed3dd",
" > c #c4d5dd",
" ? c #d2dde1",
" @ c #d8dfe2",
" A c #dce2e4",
" B c #d9e0e3",
" C c #d0dbe0",
" D c #c6d6de",
" E c #bcd0da",
" F c #c9d8e0",
" G c #eeebe8",
" H c #ebecea",
" I c #eae7e6",
" J c #c7d4db",
" K c #c0d3dc",
" L c #d3dcde",
" M c #e8e7e5",
" N c #ebe7e5",
" O c #ebe9e7",
" P c #eae9e7",
" Q c #ebe9e8",
" R c #eae9e8",
" S c #edeae9",
" T c #eceae8",
" U c #d5dee2",
" V c #bacfd9",
" W c #edecea",
" X c #e6e6e5",
" Y c #eae8e6",
" Z c #e4e7e6",
" [ c #bad7de",
" \ c #cee1e8",
" ] c #e7ebef",
" ^ c #e7eaf0",
" _ c #e5ecf1",
" ` c #e9f1f0",
" a c #e9ebe8",
" b c #e6e5e4",
" c c #e5e6e6",
" d c #b9cfd9",
" e c #e3e5e5",
" f c #e5e6e5",
" g c #e2e8e8",
" h c #b4c9d5",
" i c #c8afbe",
" j c #ce8e9b",
" k c #cd7c7c",
" l c #d17f75",
" m c #ce8a85",
" n c #cca5ad",
" o c #d7d4dc",
" p c #eaf3ee",
" q c #e9e9e7",
" r c #e5e5e6",
" s c #dfe4e5",
" t c #b6ced9",
" u c #dfe3e4",
" v c #e9e7e6",
" w c #e3e7e6",
" x c #aebacd",
" y c #af86b5",
" z c #a6507e",
" { c #c55248",
" | c #f87f3b",
" } c #ff7e43",
" ~ c #f96f4e",
"!  c #f15e5b",
"!! c #d9547a",
"!" c #c78cb0",
"!# c #e3e6e6",
"!$ c #f4f3ec",
"!% c #c1d4de",
"!& c #c4d6dd",
"!' c #eeecea",
"!( c #b8cfda",
"!) c #e2e4e5",
"!* c #b7ced6",
"!+ c #d2d6e1",
"!, c #cb919a",
"!- c #e57656",
"!. c #fb775f",
"!/ c #f76474",
"!0 c #f35a82",
"!1 c #fa5982",
"!2 c #f05686",
"!3 c #ce4f90",
"!4 c #aa3a91",
"!5 c #af5da1",
"!6 c #b9bbce",
"!7 c #7bcde7",
"!8 c #7ec5df",
"!9 c #dbdfe1",
"!: c #eaeae8",
"!; c #e4e5e4",
"!< c #dde1e2",
"!= c #b6ccd5",
"!> c #c8d5db",
"!? c #c9dee4",
"!@ c #d68fa0",
"!A c #e55356",
"!B c #f85c77",
"!C c #f55785",
"!D c #f45783",
"!E c #fb5a7c",
"!F c #e05385",
"!G c #ad4a9b",
"!H c #a64ba3",
"!I c #b14da3",
"!J c #a83794",
"!K c #749ac8",
"!L c #96e8fb",
"!M c #83d2ec",
"!N c #accdda",
"!O c #f0ebe7",
"!P c #e5e7e6",
"!Q c #efece9",
"!R c #cbd7dc",
"!S c #c9d8dd",
"!T c #edeae7",
"!U c #e1e2e3",
"!V c #c3e1e6",
"!W c #d4aabf",
"!X c #b6316e",
"!Y c #d54880",
"!Z c #f75a81",
"![ c #f45a7e",
"!\ c #fa5c7d",
"!] c #df5488",
"!^ c #a84aa0",
"!_ c #ad48a0",
"!` c #aa3b94",
"!a c #a0489b",
"!b c #8f6cad",
"!c c #8ad9ef",
"!d c #91dbf1",
"!e c #7fd2eb",
"!f c #97cadd",
"!g c #ede9e6",
"!h c #e8eae9",
"!i c #ebeae7",
"!j c #bdd3db",
"!k c #e2e5e4",
"!l c #e8e8e6",
"!m c #e7e8e8",
"!n c #efedeb",
"!o c #c4d4da",
"!p c #d1dadf",
"!q c #b772a3",
"!r c #bb699b",
"!s c #f1527a",
"!t c #f55b80",
"!u c #f75b7d",
"!v c #eb5382",
"!w c #a74197",
"!x c #aa3f99",
"!y c #9d4596",
"!z c #9096c6",
"!{ c #8ed0ea",
"!| c #8ddcf2",
"!} c #93dbf3",
"!~ c #8cd6ee",
""  c #78cbe7",
""! c #98ccde",
""" c #ece7e4",
""# c #e6e8e7",
""$ c #e4e4e3",
""% c #eeeae8",
""& c #ede8e5",
""' c #cfdade",
""( c #c6d6dc",
"") c #e8e9e7",
""* c #bcd3da",
""+ c #e0d8dc",
"", c #cdc0d1",
""- c #d8608a",
"". c #f8557a",
""/ c #f75f81",
""0 c #fc5279",
""1 c #a84d94",
""2 c #91378e",
""3 c #9b549f",
""4 c #8ecfec",
""5 c #8de7fb",
""6 c #94e2fb",
""7 c #97def6",
""8 c #94dbf2",
""9 c #88d2eb",
"": c #80d0e8",
""; c #94c6d9",
""< c #88bcd5",
""= c #93c2d7",
""> c #f7eee8",
""? c #bed4dc",
""@ c #8bc4da",
""A c #c9d9df",
""B c #efebe9",
""C c #f0ece9",
""D c #bdd2dc",
""E c #e7e7e5",
""F c #ecebe9",
""G c #dae1e2",
""H c #c1d0d9",
""I c #f4fdf4",
""J c #ceaac0",
""K c #e94974",
""L c #fe5f7f",
""M c #e74171",
""N c #a55b8e",
""O c #87a9d3",
""P c #91539c",
""Q c #8bd4ea",
""R c #85bdc9",
""S c #94afb9",
""T c #82adba",
""U c #77b5c9",
""V c #94dbf3",
""W c #92d9f1",
""X c #84d4ee",
""Y c #61adcf",
""Z c #72badf",
""[ c #9bc4d7",
""\ c #b8d0d8",
""] c #7ecbe8",
""^ c #79cce9",
""_ c #c9d8de",
""` c #e8e6e4",
""a c #b6d0db",
""b c #d7e0e3",
""c c #eae9e6",
""d c #cfdae0",
""e c #d0dfe1",
""f c #e0d4db",
""g c #cb5187",
""h c #e74a78",
""i c #c54f81",
""j c #ac608e",
""k c #8cb3c0",
""l c #8cbbdf",
""m c #89b6d8",
""n c #7a8b9d",
""o c #80365f",
""p c #c392ae",
""q c #e8dddc",
""r c #6d8a92",
""s c #80c1d6",
""t c #95e6fa",
""u c #889db8",
""v c #819ac1",
""w c #7bc5e5",
""x c #9dc2d3",
""y c #85cce5",
""z c #90def8",
""{ c #97c9dd",
""| c #becfd6",
""} c #86c7df",
""~ c #75cbe9",
"#  c #a2ccdc",
"#! c #d7dee1",
"#" c #cbd9de",
"## c #c8d8de",
"#$ c #d2d7dd",
"#% c #b270a3",
"#& c #c64b60",
"#' c #e46c48",
"#( c #c77b8e",
"#) c #74636e",
"#* c #90acb0",
"#+ c #8ce0f8",
"#, c #90c0d1",
"#- c #611932",
"#. c #504f52",
"#/ c #fdf2fb",
"#0 c #f1ccdd",
"#1 c #a7bec0",
"#2 c #79bcd0",
"#3 c #8bdcf8",
"#4 c #c85561",
"#5 c #9d86a7",
"#6 c #6cbbdc",
"#7 c #7bb9d4",
"#8 c #96e1f9",
"#9 c #84cbe5",
"#: c #86b5ca",
"#; c #81cbe5",
"#< c #93e0f8",
"#= c #80c9e4",
"#> c #d2dce0",
"#? c #dae1e3",
"#@ c #dce4e5",
"#A c #d7c4d4",
"#B c #e87949",
"#C c #ff8935",
"#D c #e28c95",
"#E c #483531",
"#F c #507783",
"#G c #92edff",
"#H c #a6a7b0",
"#I c #441815",
"#J c #32403e",
"#K c #cabcc0",
"#L c #f5afbf",
"#M c #bdeffb",
"#N c #88dcf2",
"#O c #8cb8dd",
"#P c #ec4f46",
"#Q c #a57e99",
"#R c #51abd3",
"#S c #7ec6e2",
"#T c #94dcf4",
"#U c #65b1d0",
"#V c #80cbe6",
"#W c #99e2f9",
"#X c #7ac9e5",
"#Y c #b0cbd7",
"#Z c #f3ede8",
"#[ c #c4d4dc",
"#\ c #dfeae8",
"#] c #d7c3d1",
"#^ c #e57148",
"#_ c #fe8537",
"#` c #e38384",
"#a c #7e817f",
"#b c #7ab8cb",
"#c c #8adff9",
"#d c #c7d5d3",
"#e c #62361d",
"#f c #111e26",
"#g c #442314",
"#h c #fdd8cb",
"#i c #99e0f7",
"#j c #86e2fe",
"#k c #ab7794",
"#l c #ff593e",
"#m c #986fa0",
"#n c #5cb3d7",
"#o c #72bdda",
"#p c #77c2df",
"#q c #84cfe9",
"#r c #9ae2f8",
"#s c #7fcce8",
"#t c #f3ece8",
"#u c #dae0e3",
"#v c #c3d6de",
"#w c #c6d5dc",
"#x c #d9e3e3",
"#y c #dcd2df",
"#z c #de7155",
"#{ c #ff8635",
"#| c #909ea9",
"#} c #86d8f8",
"#~ c #97e2f6",
"$  c #8bd8f0",
"$! c #afebfe",
"$" c #d7ab91",
"$# c #6a3213",
"$$ c #d2a282",
"$% c #b9f7ff",
"$& c #82e3ff",
"$' c #978fb8",
"$( c #f25f46",
"$) c #e45864",
"$* c #8461ac",
"$+ c #6bbedb",
"$, c #89d1eb",
"$- c #80cae6",
"$. c #9ce2f8",
"$/ c #7fcae6",
"$0 c #95bccf",
"$1 c #d1d8dd",
"$2 c #dce3e4",
"$3 c #f7f7ed",
"$4 c #dbe4e3",
"$5 c #c5d5dc",
"$6 c #cdd9de",
"$7 c #cfdbde",
"$8 c #e8eaef",
"$9 c #cd7975",
"$: c #ff802f",
"$; c #a89c92",
"$< c #75daf8",
"$= c #79b4d8",
"$> c #86bddd",
"$? c #8ddcf4",
"$@ c #a8e4f7",
"$A c #cbe4e5",
"$B c #a4e1f3",
"$C c #87b3d9",
"$D c #a97292",
"$E c #e9584c",
"$F c #fc6e4d",
"$G c #b7448c",
"$H c #8063a7",
"$I c #7ed2ea",
"$J c #81cae5",
"$K c #72bedc",
"$L c #89d3ec",
"$M c #72bcda",
"$N c #89c7e0",
"$O c #84d7ed",
"$P c #79afce",
"$Q c #a068a5",
"$R c #8566a7",
"$S c #cedbdf",
"$T c #c0d0d9",
"$U c #f2f7f2",
"$V c #c99eb0",
"$W c #f3723b",
"$X c #fc863f",
"$Y c #c5798a",
"$Z c #b73e77",
"$[ c #87aec7",
"$\ c #95e9fe",
"$] c #8ed9f1",
"$^ c #87daf6",
"$_ c #8bd3ee",
"$` c #8d99c3",
"$a c #9e6390",
"$b c #e3544c",
"$c c #d05b7b",
"$d c #a83c9b",
"$e c #7c6fa9",
"$f c #80d6ed",
"$g c #6eb8d8",
"$h c #7bc6e2",
"$i c #79c3e1",
"$j c #9ae4f7",
"$k c #8ce2fc",
"$l c #78bfe9",
"$m c #855bad",
"$n c #932997",
"$o c #825eab",
"$p c #dde9e6",
"$q c #ebe8e7",
"$r c #bdd2db",
"$s c #e9eae6",
"$t c #dedee8",
"$u c #d06f68",
"$v c #ff8938",
"$w c #ff6e53",
"$x c #ca5d89",
"$y c #79afcd",
"$z c #81bedf",
"${ c #7bbfde",
"$| c #7dc8e3",
"$} c #86cfe7",
"$~ c #87e3ff",
"%  c #ba7584",
"%! c #e15661",
"%" c #a94da4",
"%# c #9b3a92",
"%$ c #6a7eb5",
"%% c #88dcf1",
"%& c #8fd7ef",
"%' c #88d1eb",
"%( c #7dc9e4",
"%) c #7cbee7",
"%* c #878cad",
"%+ c #c66e68",
"%, c #f07753",
"%- c #ee754d",
"%. c #b9a4ae",
"%/ c #e8f0ef",
"%0 c #e7e6e5",
"%1 c #efecea",
"%2 c #c3d4db",
"%3 c #d2dade",
"%4 c #f1f6ef",
"%5 c #c9aac0",
"%6 c #e86c42",
"%7 c #fd8946",
"%8 c #f35c7a",
"%9 c #ea5581",
"%: c #aa4492",
"%; c #7590c2",
"%< c #8cdef2",
"%= c #90e4fb",
"%> c #999bba",
"%? c #d8485b",
"%@ c #ac4d9f",
"%A c #ab4c9e",
"%B c #74318d",
"%C c #6fa0c9",
"%D c #97e6fa",
"%E c #8cd2ec",
"%F c #6fc0dc",
"%G c #649eca",
"%H c #b16279",
"%I c #ff734f",
"%J c #ff715d",
"%K c #ff6c63",
"%L c #e77359",
"%M c #c2cecb",
"%N c #ebeaea",
"%O c #e8e8e8",
"%P c #e8e7e6",
"%Q c #e2e5e5",
"%R c #bcd2dc",
"%S c #e6eef1",
"%T c #ca818e",
"%U c #fc7e35",
"%V c #f86c67",
"%W c #fd5682",
"%X c #c14f8d",
"%Y c #78b9dd",
"%Z c #95e1f5",
"%[ c #8bdef5",
"%\ c #9e669c",
"%] c #af4597",
"%^ c #ad4d9f",
"%_ c #8e409a",
"%` c #6a4097",
"%a c #8cd2e9",
"%b c #8dd9f1",
"%c c #6dbad9",
"%d c #93dcf3",
"%e c #7fcce7",
"%f c #c9657a",
"%g c #d5407e",
"%h c #c34490",
"%i c #e44785",
"%j c #bd84ab",
"%k c #e0efee",
"%l c #e9e6e4",
"%m c #c7d6dd",
"%n c #ccd7dd",
"%o c #d1c6d8",
"%p c #df6d4c",
"%q c #ff7d4f",
"%r c #fc527f",
"%s c #c16391",
"%t c #7bd1ec",
"%u c #94dff5",
"%v c #8bd1ea",
"%w c #9c4f9e",
"%x c #9f388e",
"%y c #a04596",
"%z c #723196",
"%{ c #7f73b3",
"%| c #94e8fa",
"%} c #92dbf3",
"%~ c #74c1de",
"&  c #74c8e5",
"&! c #6dadd1",
"&" c #aa70a6",
"&# c #c3a4c5",
"&$ c #b880b1",
"&% c #924e9a",
"&& c #c7d5de",
"&' c #efeee9",
"&( c #b7cdd7",
"&) c #e1e3e2",
"&* c #e9eef1",
"&+ c #cd7f7f",
"&, c #fd7c3f",
"&- c #ff5578",
"&. c #b9749c",
"&/ c #82dbf4",
"&0 c #94def5",
"&1 c #8ed0eb",
"&2 c #9b4494",
"&3 c #9070ab",
"&4 c #8e4a9c",
"&5 c #6d2d93",
"&6 c #8ba5cf",
"&7 c #88ddf3",
"&8 c #6fc0df",
"&9 c #93cfe5",
"&: c #8fd3eb",
"&; c #a4d3df",
"&< c #fefdf1",
"&= c #e3ece8",
"&> c #b3c5d4",
"&? c #ededea",
"&@ c #eaebe9",
"&A c #ebebe9",
"&B c #ecedec",
"&C c #efefed",
"&D c #e8eceb",
"&E c #b8ced9",
"&F c #e7f1f1",
"&G c #d097a0",
"&H c #f6783c",
"&I c #ff5971",
"&J c #b27ca6",
"&K c #85e1f7",
"&L c #95dcf4",
"&M c #8b569b",
"&N c #92c6e3",
"&O c #7f4c9e",
"&P c #703796",
"&Q c #90c7e3",
"&R c #8eddf4",
"&S c #8ed9f2",
"&T c #97dbf0",
"&U c #f5fcfe",
"&V c #e2f4fa",
"&W c #98c7db",
"&X c #e7e4e4",
"&Y c #b2cad6",
"&Z c #e3e8e6",
"&[ c #ebebea",
"&\ c #eaebea",
"&] c #dee1e1",
"&^ c #b7d7e6",
"&_ c #c78186",
"&` c #ff7d38",
"&a c #ff5b73",
"&b c #b06d9c",
"&c c #83def6",
"&d c #96dcf3",
"&e c #93ddf5",
"&f c #8caad2",
"&g c #95e7fa",
"&h c #837bb7",
"&i c #733390",
"&j c #93d7ef",
"&k c #94dff6",
"&l c #95dcf3",
"&m c #8edbf7",
"&n c #cbcbc1",
"&o c #c3d5d3",
"&p c #83c6e4",
"&q c #b5cad5",
"&r c #dde2e4",
"&s c #ece9e8",
"&t c #eceae7",
"&u c #e1e7ea",
"&v c #b9b3b2",
"&w c #e08155",
"&x c #f9456c",
"&y c #a877a5",
"&z c #84daf2",
"&{ c #98def5",
"&| c #94e0f7",
"&} c #95def6",
"&~ c #94d7f0",
"'  c #80549a",
"'! c #8fc1e2",
"'" c #95e2f8",
"'# c #97dbf2",
"'$ c #8bddf9",
"'% c #acc2c3",
"'& c #91bfca",
"'' c #95c7de",
"'( c #eaeae9",
"') c #eaf0f0",
"'* c #cad2d9",
"'+ c #ac84a8",
"', c #c8cdd8",
"'- c #88c6dd",
"'. c #91ddf7",
"'/ c #98dff6",
"'0 c #97ddf5",
"'1 c #98ddf5",
"'2 c #98e3f9",
"'3 c #97d2ec",
"'4 c #94cdea",
"'5 c #98e4fb",
"'6 c #84d2ee",
"'7 c #73c2e1",
"'8 c #94cce4",
"'9 c #c3d7e1",
"': c #ececea",
"'; c #e8e6e5",
"'< c #e0eeec",
"'= c #cedce1",
"'> c #9ec0d1",
"'? c #7bc1de",
"'@ c #8ad4ee",
"'A c #86d3ee",
"'B c #85d3ef",
"'C c #8ad6f2",
"'D c #81d1ed",
"'E c #8ccee7",
"'F c #94c6db",
"'G c #dfe2e3",
"'H c #cadadf",
"'I c #bed6e0",
"'J c #b3d1dd",
"'K c #b7d4e1",
"'L c #bbd2dd",
"'M c #cad8df",
"'N c #dde1e3",
"'O c #f2edea",
"'P c #ededec",
"'Q c #e9e8e8",
"'R c #f0ecea",
"'S c #f0ebe8",
"'T c #f2ece9",
"'U c #f1ebe8",
"'V c #f1ece9",
"'W c #ececeb",
"'X c #e8e7e7",
"   ! " # $ # ! # " ! % $ & ' ( ) ' ( ( * ! + # ,     " # " ! # $",
" " # # " # " # # % - ' . / 0 1 2 3 4 5 6 " 7 - . 8   . " # 9 # #",
" " # ! 9 , : ! # ) ; < = > ? @ A A B C D E F ; G H ! " # ! # ! !",
" " " 9 # # % - I J K L M N 7 O P Q R S T " U V < W R X # # 9 9 #",
" " # , , % Y Z [ \ ] ^ _ ` a b . , + c % ! T P 5 d e Q f " # ! "",
" ! # # % & g h i j k l m n o p q r G ( + # % % ' s t u * f 9 # #",
" # % . v w x y z { | } ~! !!!"!#!$!%!& G c # # %!' e!(!) q . # #",
" 9 # 9 v!*!+!,!-!.!/!0!1!2!3!4!5!6!7!8!9!: . " #!; T!<!= Y ! # !",
" ! . (!>!?!@!A!B!C!D!E!F!G!H!I!J!K!L!M!N!O!P # ! # .!Q!R!S!T % 9",
" # R!U!V!W!X!Y!Z![!\!]!^!_!`!a!b!c!d!e!f!g % .!h ! # %!i!j!k!l "",
"!m!n!o!p!q!r!s!t!u!v!w!x!y!z!{!|!}!~" "!"""#"$"%"& v + Q"'"( G f",
"") b"*"+","-"."/"0"1"2"3"4"5"6"7"8"9":";"<"=">"?"@"A"B"C T"D"E "",
""F"G"H"I"J"K"L"M"N"O"P"Q"R"S"T"U"V"W"X"Y"Z"["\"]"^"_"`"a"b 2 A"c",
" '"d"e"f"g"h"i"j"k"l"m"n"o"p"q"r"s"t"u"v"w"x"y"z"{"|"}"~# #!#" '",
" '###$#%#&#'#(#)#*#+#,#-#.#/#0#1#2#3#4#5#6#7#8#9#:#;#<#=#>#? D G",
" ' >#@#A#B#C#D#E#F#G#H#I#J#K#L#M#N#O#P#Q#R#S#T#U#V#W#X#Y#Z B > (",
" (#[#\#]#^#_#`#a#b#c#d#e#f#g#h#i#j#k#l#m#n#o#p#q#r#s#Y#t 9#u#v '",
"!Q#w#x#y#z#{#|#}#~$ $!$"$#$$$%$&$'$($)$*$+$,$-$.$/$0$1$2$3$4$5 '",
" )$6$7$8$9$:$;$<$=$>$?$@$A$B$C$D$E$F$G$H$I$J$K$L$M$N$O$P$Q$R$S!T",
" Q#?$T$U$V$W$X$Y$Z$[$\$]$^$_$`$a$b$c$d$e$f$g$h$i$j$k$l$m$n$o$p$q",
" ""E$r$s$t$u$v$w$x$y$z${$|$}$~% %!%"%#%$%%%&%'%(%)%*%+%,%-%.%/%0",
" %%1%2%3%4%5%6%7%8%9%:%;%<%=%>%?%@%A%B%C%D%E%F%G%H%I%J%K%L%M%N !",
"%O%P%Q%R!g%S%T%U%V%W%X%Y%Z%[%\%]%^%_%`%a%b%c%d%e%f%g%h%i%j%k%l  ",
" " ! G%m%n!$%o%p%q%r%s%t%u%v%w%x%y%z%{%|%}%~& &!&"&#&$&%&&&'%O "",
" # #   P&(&)&*&+&,&-&.&/&0&1&2&3&4&5&6&7$i&8&9&:&;&<&=&>&? #&@&A",
" "&B f&C&D&E&F&G&H&I&J&K&L"W&M&N&O&P&Q&R&S&T&U&V&W&X&Y&Z P  !l q",
"&[&\ % 8 W&]&^&_&`&a&b&c&d&e&f&g&h&i&j&k&l&m&n&o&p&q&r&s "!l   "",
"   #   #")&t&u&v&w&x&y&z&{%d&|&}&~' '!'"'#'$'%'&'' ""F") "  !l  ",
"%O   #'( #%O Y')'*'+','-'.'/'0'1'2'3'4'5'6'7'8'9!O':'( #   " " "",
"   9   #  "E "';!''<'='>'?'@'A'B'C'D'A'E'F d v"C!m # X   #  '( "",
" "%O ,   ,   , " # I ( T'G'H'I'J'K'L'M'N!g'O # ! " 9   # "'('P!l",
" " "'Q!l  !l'Q " " " .%O!:'R'S'T'U'V!Q *%O %%O!l "'W  'Q!l "'X #"
};